elide/concept/src/copyright.svg

<svg clip-rule="evenodd" fill-rule="evenodd" stroke-linejoin="round" stroke-miterlimit="2" viewBox="0 0 100 100" xmlns="http://www.w3.org/2000/svg"><g fill="#fff"><path d="m50-5.556c-30.662 0-55.556 24.894-55.556 55.556s24.894 55.556 55.556 55.556 55.556-24.894 55.556-55.556-24.894-55.556-55.556-55.556zm0 11.112c24.53 0 44.444 19.914 44.444 44.444s-19.914 44.444-44.444 44.444-44.444-19.914-44.444-44.444 19.914-44.444 44.444-44.444z" transform="matrix(.9 0 0 .9 5 5)"/><path d="m73.69 58c-3.338 9.879-12.689 17-23.69 17-13.798 0-25-11.202-25-25s11.202-25 25-25c11.001 0 20.352 7.121 23.69 17h-11.002c-2.659-4.206-7.35-7-12.688-7-8.279 0-15 6.721-15 15s6.721 15 15 15c5.338 0 10.029-2.794 12.688-7z"/></g></svg>

<?xml version="1.0" encoding="UTF-8" standalone="no"?>
<!DOCTYPE svg PUBLIC "-//W3C//DTD SVG 1.1//EN" "http://www.w3.org/Graphics/SVG/1.1/DTD/svg11.dtd">
<svg width="100%" height="100%" viewBox="0 0 100 100" version="1.1" xmlns="http://www.w3.org/2000/svg" xmlns:xlink="http://www.w3.org/1999/xlink" xml:space="preserve" xmlns:serif="http://www.serif.com/" style="fill-rule:evenodd;clip-rule:evenodd;stroke-linejoin:round;stroke-miterlimit:2;">
    <g transform="matrix(0.9,0,0,0.9,5,5)">
        <path d="M50,-5.556C19.338,-5.556 -5.556,19.338 -5.556,50C-5.556,80.662 19.338,105.556 50,105.556C80.662,105.556 105.556,80.662 105.556,50C105.556,19.338 80.662,-5.556 50,-5.556ZM50,5.556C74.53,5.556 94.444,25.47 94.444,50C94.444,74.53 74.53,94.444 50,94.444C25.47,94.444 5.556,74.53 5.556,50C5.556,25.47 25.47,5.556 50,5.556Z" style="fill:white;"/>
    </g>
    <path d="M73.69,58C70.352,67.879 61.001,75 50,75C36.202,75 25,63.798 25,50C25,36.202 36.202,25 50,25C61.001,25 70.352,32.121 73.69,42L62.688,42C60.029,37.794 55.338,35 50,35C41.721,35 35,41.721 35,50C35,58.279 41.721,65 50,65C55.338,65 60.029,62.206 62.688,58L73.69,58Z" style="fill:white;"/>
</svg>
